X:502
T:Reel 502
M:4/4
K:Dmaj
L:1/8
AG|F>D (3DDD FDDC|A,DCE GFED|G>E (3EDE EEFG|Eced cBAG|F>D (3DCD FDCD|F>D (3DCD FAdA|GECE GFED|CECE D2|FA|d2d2 fdec|Addc d2Ac|BGGG EGBd|EDCD EGFE|Dddc dBAc|dAcc BcAF|G2Bc dBAG|FDEC D2|
